X: 2
T: The Humours Of Trim
R: jig
M: 6/8
L: 1/8
K: Dmaj
|:~F3 DED|D2d cAG|FAF DED|A2F GFE|
FEF DED|D2d cAG|FAF GBG|A2F GFE:|
D2d cAd|cAd cAG|F2d cAG|FAF GEA|
D2d cAd|fed cAG|FAF GBG|A2F GFE:|


Tune 88	Setting 12620

